images_elementary_svg/cmd/sc_insertcellsdown.svg

<svg viewBox="0 0 16 16" xmlns="http://www.w3.org/2000/svg" xmlns:xlink="http://www.w3.org/1999/xlink"><linearGradient id="a" gradientTransform="matrix(.59436 0 0 .5999 -19.265 -.033)" gradientUnits="userSpaceOnUse" x1="25.132" x2="25.132" y1="15.5" y2="48.396"><stop offset="0" stop-color="#fafafa"/><stop offset="1" stop-color="#e2e1de"/></linearGradient><linearGradient id="b" gradientUnits="userSpaceOnUse" x1="10.476" x2="23.695" y1="3.225" y2="3.225"><stop offset="0" stop-color="#cd9ef7"/><stop offset="1" stop-color="#a56de2"/></linearGradient><linearGradient id="c" gradientTransform="matrix(0 -.5372 .57682 0 -15.997 19.866)" gradientUnits="userSpaceOnUse" x1="30.782" x2="31.082" y1="47.444" y2="66.576"><stop offset="0" stop-color="#fff"/><stop offset=".21" stop-color="#fff" stop-opacity=".235"/><stop offset=".859" stop-color="#fff" stop-opacity=".157"/><stop offset="1" stop-color="#fff" stop-opacity=".392"/></linearGradient><g transform="translate(0 2)"><rect fill="url(#a)" height="14" rx=".424" ry=".491" width="14" x="1" y="-1"/><path d="m.498-1.998c-.276 0-.5.224-.5.5l.002 14.998c0 .276.224.5.5.5h15c.276 0 .5-.224.5-.5l-.002-10.5h.002v-1h-.002v-3.498c0-.276-.224-.5-.5-.5zm.498.998h14.004v3h-4.002v-2.998h-1v2.998h-4v-2.998h-1v2.998h-4.002zm0 4h4.004v2h-4v1h4v3h-4v1h4v3h1v-3h4v3h1v-3h4v-1h-4v-3h4v3l.002 4.002h-14.004zm5.004 0h4v2h-4zm5 0h4v2h-4zm-5 3h4v3h-4z" fill="#030303" opacity=".32"/></g><path d="m11 15v-3h4v3z" fill="#9cde4a"/><path d="m10 15c0 .554.446 1 1 1h4c.554 0 1-.446 1-1v-3c0-.554-.446-1-1-1h-4c-.554 0-1 .446-1 1zm1 0v-3h4v3z" fill="#5ca12a"/><path d="m11 12v-1h4v1z" fill="#5ca12a"/><path d="m16.685 9.236 7.01-6.12-7.034-5.9v3.644l-6.183-.012.022 4.652 6.185.014z" display="block" fill="url(#b)" transform="matrix(0 .64678 .64678 0 8.94 -6.276)"/><g fill="none" stroke-miterlimit="7"><path d="m14.914 4.547-3.974 4.987-3.802-5.004h2.36l-.01-4 3.01.016.01 4z" display="block" stroke="#7239b3" stroke-linejoin="round" stroke-opacity=".875"/><path d="m17.685 7.126 5.145-4.036-5.17-3.8v2.574l-6.184-.014.024 2.65 6.185.014z" display="block" stroke="url(#c)" stroke-width=".964" transform="matrix(0 .64678 .64678 0 8.94 -6.276)"/></g></svg>

<svg xmlns="http://www.w3.org/2000/svg" xmlns:xlink="http://www.w3.org/1999/xlink" viewBox="0 0 16 16"><defs><linearGradient id="e" gradientTransform="matrix(.59436 0 0 .5999 -19.265 -.033)" gradientUnits="userSpaceOnUse" x1="25.132" x2="25.132" y1="15.5" y2="48.396"><stop offset="0" stop-color="#fafafa"/><stop offset="1" stop-color="#e2e1de"/></linearGradient><linearGradient id="a"><stop offset="0" stop-color="#fff"/><stop offset=".5" stop-color="#fff" stop-opacity=".235"/><stop offset=".951" stop-color="#fff" stop-opacity=".157"/><stop offset="1" stop-color="#fff" stop-opacity=".392"/></linearGradient><linearGradient id="c"><stop offset="0" stop-color="#fff"/><stop offset=".45" stop-color="#fff" stop-opacity=".235"/><stop offset=".65" stop-color="#fff" stop-opacity=".157"/><stop offset="1" stop-color="#fff" stop-opacity=".392"/></linearGradient><linearGradient id="b"><stop offset="0" stop-color="#cd9ef7"/><stop offset="1" stop-color="#a56de2"/></linearGradient><linearGradient id="d"><stop offset="0"/><stop offset="1" stop-opacity="0"/></linearGradient><linearGradient xlink:href="#b" id="f" x1="10.476" y1="3.225" x2="23.695" y2="3.225" gradientUnits="userSpaceOnUse"/><linearGradient id="g" gradientTransform="matrix(0 -.5372 .57682 0 -15.997 19.866)" gradientUnits="userSpaceOnUse" x1="30.782" x2="31.082" y1="47.444" y2="66.576"><stop offset="0" stop-color="#fff"/><stop offset=".21" stop-color="#fff" stop-opacity=".235"/><stop offset=".859" stop-color="#fff" stop-opacity=".157"/><stop offset="1" stop-color="#fff" stop-opacity=".392"/></linearGradient></defs><g transform="translate(0 2)"><rect height="14" rx=".424" ry=".491" width="14" x="1" y="-1" fill="url(#e)"/><path d="M.498-1.998c-.276 0-.5.224-.5.5L0 13.5c0 .276.224.5.5.5h15c.276 0 .5-.224.5-.5L15.998 3H16V2h-.002v-3.498c0-.276-.224-.5-.5-.5zM.996-1H15v3h-4.002V-.998h-1V2h-4V-.998h-1V2H.996zm0 4H5v2H1v1h4v3H1v1h4v3h1v-3h4v3h1v-3h4V9h-4V6h4v3l.002 4.002H.998zM6 3h4v2H6zm5 0h4v2h-4zM6 6h4v3H6z" opacity=".32" fill="#030303"/></g><path d="M11 15v-3h4v3z" fill="#9cde4a"/><path d="M10 15c0 .554.446 1 1 1h4c.554 0 1-.446 1-1v-3c0-.554-.446-1-1-1h-4c-.554 0-1 .446-1 1zm1 0v-3h4v3z" fill="#5ca12a"/><path fill="#5ca12a" d="M11 12v-1h4v1z"/><g><path d="M16.685 9.236l7.01-6.12-7.034-5.9V.86L10.478.848 10.5 5.5l6.185.014z" display="block" transform="matrix(0 .64678 .64678 0 8.94 -6.276)" fill="url(#f)"/><path d="M14.914 4.547L10.94 9.534 7.138 4.53h2.36l-.01-4 3.01.016.01 4z" display="block" stroke-miterlimit="7" fill="none" stroke="#7239b3" stroke-linejoin="round" stroke-opacity=".875"/><path d="M17.685 7.126L22.83 3.09l-5.17-3.8v2.574l-6.184-.014.024 2.65 6.185.014z" display="block" stroke-miterlimit="7" transform="matrix(0 .64678 .64678 0 8.94 -6.276)" fill="none" stroke="url(#g)" stroke-width=".964"/></g></svg>
